images/external-link.svg

<?xml version="1.0" encoding="UTF-8"?>
<svg width="30px" height="27px" viewBox="0 0 30 27" version="1.1" xmlns="http://www.w3.org/2000/svg" xmlns:xlink="http://www.w3.org/1999/xlink">
    <defs></defs>
    <g id="Page-1" stroke="none" stroke-width="1" fill="none" fill-rule="evenodd">
        <g id="external-link" fill-rule="nonzero" fill="#CF352C">
            <path d="M23.571457,16.1071 C23.571457,15.80576 23.337081,15.571385 23.035742,15.571385 L21.964312,15.571385 C21.662972,15.571385 21.428597,15.80576 21.428597,16.1071 L21.428597,21.464249 C21.428597,22.937465 20.223238,24.142824 18.750022,24.142824 L4.821434,24.142824 C3.348218,24.142824 2.14286,22.937465 2.14286,21.464249 L2.14286,7.535661 C2.14286,6.062445 3.348218,4.857087 4.821434,4.857087 L16.607163,4.857087 C16.908502,4.857087 17.142878,4.622711 17.142878,4.321372 L17.142878,3.249942 C17.142878,2.948602 16.908502,2.714227 16.607163,2.714227 L4.821434,2.714227 C2.159601,2.714227 0,4.873828 0,7.535661 L0,21.464249 C0,24.126083 2.159601,26.285684 4.821434,26.285684 L18.750022,26.285684 C21.411856,26.285684 23.571457,24.126083 23.571457,21.464249 L23.571457,16.1071 Z M30.000036,1.642797 C30.000036,1.056859 29.514544,0.571367 28.928606,0.571367 L20.357167,0.571367 C19.771229,0.571367 19.285737,1.056859 19.285737,1.642797 C19.285737,1.927396 19.402925,2.195253 19.603818,2.396146 L22.55025,5.342578 L11.635059,16.25777 C11.534612,16.358216 11.467648,16.508886 11.467648,16.642815 C11.467648,16.776744 11.534612,16.927414 11.635059,17.02786 L13.543543,18.936345 C13.643989,19.036791 13.794659,19.103755 13.928588,19.103755 C14.062517,19.103755 14.213187,19.036791 14.313633,18.936345 L25.228825,8.021153 L28.175257,10.967585 C28.37615,11.168478 28.644007,11.285666 28.928606,11.285666 C29.514544,11.285666 30.000036,10.800174 30.000036,10.214236 L30.000036,1.642797 Z" id="Shape"></path>
        </g>
    </g>
</svg>

<svg width="30" height="27" viewBox="0 0 30 27" xmlns="http://www.w3.org/2000/svg"><path d="M23.571 16.107a.529.529 0 0 0-.535-.536h-1.072a.529.529 0 0 0-.535.536v5.357a2.686 2.686 0 0 1-2.679 2.679H4.821a2.686 2.686 0 0 1-2.678-2.679V7.536A2.686 2.686 0 0 1 4.82 4.857h11.786a.529.529 0 0 0 .536-.536V3.25a.529.529 0 0 0-.536-.536H4.821A4.823 4.823 0 0 0 0 7.536v13.928a4.823 4.823 0 0 0 4.821 4.822H18.75a4.823 4.823 0 0 0 4.821-4.822v-5.357zM30 1.643C30 1.057 29.515.57 28.929.57h-8.572c-.586 0-1.071.486-1.071 1.072 0 .284.117.552.318.753l2.946 2.947-10.915 10.915c-.1.1-.167.25-.167.385 0 .134.067.284.167.385l1.909 1.908c.1.1.25.168.385.168a.577.577 0 0 0 .385-.168L25.229 8.021l2.946 2.947c.201.2.469.318.754.318.586 0 1.071-.486 1.071-1.072V1.643z" fill-rule="nonzero" fill="#CF352C"/></svg>
